icons/dashboard-line.svg

<svg xmlns="http://www.w3.org/2000/svg" viewBox="0 0 24 24">
    <g>
        <path fill="none" d="M0 0h24v24H0z"/>
        <path d="M13 21V11h8v10h-8zM3 13V3h8v10H3zm6-2V5H5v6h4zM3 21v-6h8v6H3zm2-2h4v-2H5v2zm10 0h4v-6h-4v6zM13 3h8v6h-8V3zm2 2v2h4V5h-4z"/>
    </g>
</svg>

<svg viewBox="0 0 24 24" fill="currentColor" xmlns="http://www.w3.org/2000/svg"><path d="M13 21V11H21V21H13ZM3 13V3H11V13H3ZM9 11V5H5V11H9ZM3 21V15H11V21H3ZM5 19H9V17H5V19ZM15 19H19V13H15V19ZM13 3H21V9H13V3ZM15 5V7H19V5H15Z"/></svg>
